X:1
T: Mr. Barclay (Braes of Enzie)
C:Alexander Walker
R:Strathspey
Q: 128
K:Dm
M:4/4
L:1/16
|:A,2|DDD2 D3E F3G A3d|c3d c3A Gc3 E3C|DDD2 D3E F3G A3d|c3A G3E DDD2 D3A,|
DDD2 D3E F3G A3d|fa3 g3e c3d e3g|a3f g3e f3d e3c|ec3 g3e ddd2 d2c2|
ddd2 d3c d3e a4|gc3 g3e c3d e3c|ddd2 d3c d3e a4|f3d e3c d4 d3A|
ddd2 d3c d3e a4|gc3 g3e c4 c3f|a3f g3e f3d e3c|A3G c3E DDD2 D2:|
